X: 5
T: Dinkey's
R: reel
M: 4/4
L: 1/8
K: Amix
|: fed | "A"{cd}c2 Bc ABcd | "Em"egfd edBd | "G"gB B/B/B gBaB | gB B/B/B gfed |
"A"{cd}c2 Bc ABcd | "Em"egfd edBd | "G"{a}(gfg)e "D"dfed | "E7"cdBc "A"A :|
|: ef^g | "A"aA A/A/A aAbA | aA A/A/A {b}agef | "G"gB B/B/B gBaB | gB B/B/B "Em"{a}gfeg |
[1 "A"aA A/A/A aAbA | aA A/A/A {b}agef | "G"{a}(gfg)e "D"dfed | "E7"cdBc "A"A :|
[2 "A"aA A/A/A "G"gA A/A/A | "D"fA A/A/A "A"eA A/A/A | "G"{a}(gfg)e "D"dfed | "E7"cdBc "A"A |]


Tune 24	Setting 12404

